src/WeatherTwentyOne/Resources/Images/fluent_weather_sunny_20_filled.svg

<svg width="40" height="40" viewBox="0 0 40 40" fill="none" xmlns="http://www.w3.org/2000/svg">
<path d="M19.994 31.584C20.2281 31.5839 20.4547 31.6659 20.6345 31.8158C20.8143 31.9656 20.9359 32.1738 20.978 32.404L20.994 32.584V35.016C20.9945 35.2659 20.9014 35.5069 20.733 35.6916C20.5646 35.8762 20.3332 35.9912 20.0844 36.0137C19.8355 36.0363 19.5872 35.9649 19.3883 35.8135C19.1895 35.6622 19.0545 35.4419 19.01 35.196L18.994 35.016V32.584C18.994 32.3188 19.0994 32.0644 19.2869 31.8769C19.4744 31.6893 19.7288 31.584 19.994 31.584V31.584ZM29.468 28.044L29.606 28.16L31.326 29.88C31.5032 30.0564 31.6079 30.2927 31.6194 30.5424C31.631 30.7922 31.5486 31.0372 31.3885 31.2292C31.2283 31.4211 31.0021 31.5462 30.7544 31.5797C30.5066 31.6131 30.2553 31.5526 30.05 31.41L29.91 31.294L28.19 29.574C28.0107 29.3979 27.9043 29.1608 27.8919 28.9098C27.8795 28.6588 27.9621 28.4123 28.1232 28.2194C28.2843 28.0265 28.5121 27.9014 28.7613 27.8689C29.0105 27.8364 29.2628 27.8989 29.468 28.044ZM11.794 28.16C11.9597 28.3254 12.062 28.5438 12.0832 28.777C12.1044 29.0101 12.0431 29.2434 11.91 29.436L11.794 29.574L10.074 31.294C9.89763 31.4712 9.66129 31.5758 9.41156 31.5874C9.16184 31.5989 8.91684 31.5166 8.72485 31.3564C8.53286 31.1963 8.4078 30.9701 8.37433 30.7224C8.34086 30.4746 8.4014 30.2233 8.54401 30.018L8.66001 29.88L10.38 28.16C10.5675 27.9725 10.8218 27.8672 11.087 27.8672C11.3522 27.8672 11.6065 27.9725 11.794 28.16V28.16ZM20.014 11.016C21.209 10.9908 22.3969 11.2043 23.5083 11.6442C24.6196 12.084 25.632 12.7413 26.486 13.5775C27.34 14.4137 28.0185 15.4119 28.4817 16.5138C28.9449 17.6156 29.1835 18.7988 29.1835 19.994C29.1835 21.1892 28.9449 22.3724 28.4817 23.4742C28.0185 24.576 27.34 25.5743 26.486 26.4105C25.632 27.2466 24.6196 27.9039 23.5083 28.3438C22.3969 28.7836 21.209 28.9972 20.014 28.972C17.6657 28.9224 15.4303 27.9547 13.7871 26.2764C12.1438 24.5981 11.2235 22.3428 11.2235 19.994C11.2235 17.6452 12.1438 15.3898 13.7871 13.7115C15.4303 12.0332 17.6657 11.0656 20.014 11.016V11.016ZM35 19.03C35.2499 19.0295 35.4909 19.1226 35.6756 19.291C35.8602 19.4594 35.9752 19.6908 35.9978 19.9396C36.0203 20.1885 35.9489 20.4368 35.7976 20.6356C35.6462 20.8345 35.4259 20.9695 35.18 21.014L35 21.03H32.568C32.3181 21.0304 32.0771 20.9373 31.8924 20.769C31.7078 20.6006 31.5928 20.3692 31.5703 20.1203C31.5477 19.8715 31.6191 19.6232 31.7705 19.4243C31.9218 19.2255 32.1421 19.0905 32.388 19.046L32.568 19.03H35ZM7.43201 18.98C7.6819 18.9795 7.92291 19.0726 8.10758 19.241C8.29225 19.4094 8.40718 19.6408 8.42976 19.8896C8.45234 20.1385 8.38092 20.3868 8.22957 20.5856C8.07822 20.7845 7.85791 20.9195 7.61201 20.964L7.43201 20.98H5.00001C4.75012 20.9804 4.50911 20.8873 4.32445 20.719C4.13978 20.5506 4.02484 20.3192 4.00226 20.0703C3.97968 19.8215 4.0511 19.5732 4.20245 19.3743C4.3538 19.1755 4.57412 19.0405 4.82001 18.996L5.00001 18.98H7.43201V18.98ZM9.93601 8.58798L10.076 8.70398L11.796 10.424C11.9732 10.6004 12.0779 10.8367 12.0894 11.0864C12.101 11.3362 12.0186 11.5812 11.8585 11.7731C11.6983 11.9651 11.4721 12.0902 11.2244 12.1237C10.9766 12.1571 10.7253 12.0966 10.52 11.954L10.38 11.838L8.66001 10.118C8.48284 9.9416 8.37817 9.70526 8.36661 9.45553C8.35505 9.20581 8.43745 8.96081 8.59756 8.76882C8.75768 8.57683 8.9839 8.45177 9.23165 8.4183C9.47939 8.38483 9.73069 8.44537 9.93601 8.58798V8.58798ZM31.326 8.70398C31.4917 8.86944 31.594 9.08779 31.6152 9.32096C31.6364 9.55414 31.5751 9.78736 31.442 9.97998L31.326 10.118L29.606 11.838C29.4296 12.0151 29.1933 12.1198 28.9436 12.1314C28.6938 12.1429 28.4488 12.0605 28.2568 11.9004C28.0649 11.7403 27.9398 11.5141 27.9063 11.2663C27.8729 11.0186 27.9334 10.7673 28.076 10.562L28.192 10.422L29.912 8.70198C30.0995 8.51451 30.3538 8.40919 30.619 8.40919C30.8842 8.40919 31.1385 8.51451 31.326 8.70198V8.70398ZM20 3.97998C20.2341 3.9799 20.4607 4.06192 20.6405 4.21176C20.8203 4.3616 20.9419 4.56975 20.984 4.79998L21 4.97998V7.41198C21.0005 7.66187 20.9074 7.90288 20.739 8.08755C20.5706 8.27221 20.3392 8.38715 20.0904 8.40973C19.8415 8.43231 19.5932 8.36089 19.3943 8.20954C19.1955 8.05819 19.0605 7.83788 19.016 7.59198L19 7.41198V4.98198C19 4.71676 19.1054 4.46241 19.2929 4.27487C19.4804 4.08734 19.7348 3.98198 20 3.98198V3.97998Z" fill="url(#paint0_linear)"/>
<defs>
<linearGradient id="paint0_linear" x1="9.46325" y1="9.77223" x2="27.9629" y2="27.0957" gradientUnits="userSpaceOnUse">
<stop offset="0.10243" stop-color="#28C2D1"/>
<stop offset="0.925347" stop-color="#4931DE"/>
</linearGradient>
</defs>
</svg>

<svg width="40" height="40" fill="none" xmlns="http://www.w3.org/2000/svg">
    <path
        d="M19.994 31.584a1 1 0 01.984.82l.016.18v2.432a1 1 0 01-1.984.18l-.016-.18v-2.432a1 1 0 011-1zm9.474-3.54l.138.116 1.72 1.72a1 1 0 01-1.276 1.53l-.14-.116-1.72-1.72a1 1 0 011.278-1.53zm-17.674.116a1 1 0 01.116 1.276l-.116.138-1.72 1.72a1 1 0 01-1.53-1.276l.116-.138 1.72-1.72a1 1 0 011.414 0zm8.22-17.144a8.98 8.98 0 11.38 17.956 8.98 8.98 0 01-.38-17.956zM35 19.03a1 1 0 01.18 1.984l-.18.016h-2.432a1 1 0 01-.18-1.984l.18-.016H35zm-27.568-.05a1 1 0 01.18 1.984l-.18.016H5a1 1 0 01-.18-1.984L5 18.98h2.432zM9.936 8.588l.14.116 1.72 1.72a1 1 0 01-1.276 1.53l-.14-.116-1.72-1.72a1 1 0 011.276-1.53zm21.39.116a1 1 0 01.116 1.276l-.116.138-1.72 1.72a1 1 0 01-1.53-1.276l.116-.14 1.72-1.72a1 1 0 011.414 0v.002zM20 3.98a1 1 0 01.984.82l.016.18v2.432a1 1 0 01-1.984.18L19 7.412v-2.43a1 1 0 011-1V3.98z"
        fill="url(#prefix__paint0_linear)" />
    <defs>
        <linearGradient id="prefix__paint0_linear" x1="9.463" y1="9.772" x2="27.963" y2="27.096"
            gradientUnits="userSpaceOnUse">
            <stop offset=".102" stop-color="#28C2D1" />
            <stop offset=".925" stop-color="#4931DE" />
        </linearGradient>
    </defs>
</svg>
